X:643
T: WO IST JESUS MEIN VERLANGEN
N: E2016
O: Europa, Mitteleuropa, Deutschland, Schlesien
R: geistlich, Gebet, Jesus - Lied
M: 3/4
L: 1/16
K: F
F2A2 | c4f4e2d2 | c4A4
c2A2 | G4B4A2G2 | A8
F2A2 | c4c4dcBA | G4B4
A2G2 | F6A2G2E2 | F8

